hero/solid/speaker-wave.svg

<svg width="24" height="24" viewBox="0 0 24 24" fill="none" xmlns="http://www.w3.org/2000/svg">
<path d="M13.5 4.06069C13.5 2.72433 11.8843 2.05508 10.9393 3.00003L6.43934 7.50003H4.50905C3.36772 7.50003 2.19106 8.16447 1.8493 9.40508C1.62147 10.2322 1.5 11.1025 1.5 12C1.5 12.8975 1.62147 13.7679 1.8493 14.595C2.19106 15.8356 3.36772 16.5 4.50905 16.5H6.43934L10.9393 21C11.8843 21.945 13.5 21.2757 13.5 19.9394V4.06069Z" fill="#0F172A"/>
<path d="M18.5837 5.10567C18.8766 4.81278 19.3514 4.81278 19.6443 5.10567C23.452 8.91328 23.452 15.0866 19.6443 18.8943C19.3514 19.1871 18.8766 19.1871 18.5837 18.8943C18.2908 18.6014 18.2908 18.1265 18.5837 17.8336C21.8055 14.6118 21.8055 9.38816 18.5837 6.16633C18.2908 5.87344 18.2908 5.39856 18.5837 5.10567Z" fill="#0F172A"/>
<path d="M15.9323 7.7574C16.2252 7.46451 16.7001 7.46451 16.993 7.7574C19.3361 10.1005 19.3361 13.8995 16.993 16.2427C16.7001 16.5356 16.2252 16.5356 15.9323 16.2427C15.6394 15.9498 15.6394 15.4749 15.9323 15.182C17.6897 13.4247 17.6897 10.5754 15.9323 8.81806C15.6394 8.52517 15.6394 8.0503 15.9323 7.7574Z" fill="#0F172A"/>
</svg>

<svg viewBox="0 0 24 24" xmlns="http://www.w3.org/2000/svg"><g><path d="M13.5 4.06c0-1.34-1.62-2.005-2.56-1.06l-4.5 4.5H4.5c-1.141 0-2.32.66-2.66 1.9l-.001-.001c-.24.84-.35 1.71-.35 2.59 0 .89.121 1.76.35 2.59 .34 1.24 1.51 1.9 2.65 1.9h1.93l4.5 4.5c.94.94 2.561.27 2.561-1.06V4.039Zm5.084 1.04V5.09c.29-.3.76-.3 1.06 0 3.808 3.8 3.808 9.98 0 13.78v-.001c-.29.3-.76.31-1.06.03 -.31-.29-.32-.76-.04-1.06 .01-.02.02-.03.03-.04v0c3.22-3.23 3.22-8.45 0-11.67 -.01-.01-.01-.01-.01-.01v0c-.3-.3-.3-.77 0-1.06Z"/><path d="M15.932 7.75v0c.29-.3.76-.3 1.06-.01 0 0 0 0 0 0v0c2.34 2.34 2.34 6.14 0 8.48 -.01 0-.01 0-.01 0v0c-.3.28-.78.27-1.07-.02 -.29-.3-.29-.76 0-1.05v0c1.75-1.76 1.75-4.61 0-6.37 -.01-.01-.01-.01-.01-.01h-.001c-.3-.3-.3-.77 0-1.06Z"/></g></svg>
